X:1
T:reel des \'Eboulements   #2
O:Qu\'ebec
S:Dominique Renaudin <domren:free.fr> QueTrad 2003-2-12
F:http://www.thursdaycontra.com/~spuds/tunes/reels/allreels.abc
R:reel
M:4/4
L:1/8
K:A
e{f}g |\
"A"aA~A2 cAec | "Bm"Bcde "E"fefg | "A"aA~A2 "(F#m)"cA"E"eA | "D"fd"E"ge "A"aefg |
"A"aA~A2 cAec | "Bm"Bcde "E"fefg | "D"agfe "Bm"fedc | "E7"defg "A"a2 :|
|: ed |\
"A"cAEA cAec | "Bm"Bcde "E"f2ed | "A"cAEA cAeA | "Bm"fd"E"ge "A"a2ed |
"A"cAEA cAec | "Bm"Bcde "E"fefg | "D"agfe "Bm"fedc | "E7"defg "A"a2 :|
|: AF |\
"A"EA~A2 cABA | "E"GABc d2cB | "E"GB~B2 EB~B2 | "E"GB~B2 "A"A2AF |
"A"EA~A2 c2BA | "E"GABc defg | "D"agfe "Bm"fedc | "E7"defg "A"a2 :|
